**kern	**kern	**dynam
*part1	*part1	*part1
*staff2	*staff1	*
*I"Piano	*	*
*clefF4	*clefG2	*
*k[f#]	*k[f#]	*
*M2/4	*M2/4	*
=1	=1	=1
!	!LO:TX:a:i:t=Andante me non troppo.	!
!	!LO:TX:a:B:t=Nicht zu langsam.	!
(4E	(4G 4B	p
8GGL) 8E	8BL) 8e	.
8GGJ 8E	8BJ 8e	.
=	=	=
*	*^	*
4BB 4Fn	(8.dL	4A	.
.	16BJk	.	.
4BB 4F	4d)	4A	.
=	=	=	=
(4E	(4A 4c	2ryy	.
8E-XL)	8GL) 8c 8g	.	.
8E-J	8GJ 8c 8g	.	.
=	=	=	=
*^	*	*	*
4A-X	4D	(8.fnL	4c	.
.	.	16dJk	.	.
4G	4D	4f)	4B	.
=	=	=	=	=
4G	(4C	(8.e-XL	4c	.
.	.	16cJk	.	.
4G	4BB-X)	4e-)	4c	.
=	=	=	=	=
4G	[4AA	(8.e-XL	4c	<
.	.	16cJk	.	.
4F#	4AA]	4e-)	4c	.
=	=	=	=	=
4G	(4GG	(4en	4Bn	[ >
8EL	8AAL)	8dL)	8AL	.
8EJ	8AAJ	8cJ	8AJ	.
*v	*v	*	*	*
*	*v	*v	*
=	=	=
*-	*-	*-
!!!system-decoration: {(s1,s2)}
